symbols/it/main-3v-AVV.svg

<?xml version="1.0" encoding="UTF-8" standalone="no"?>
<svg
   width="15"
   height="34.52169"
   viewBox="0 0 15 34.52169"
   version="1.1"
   id="svg3712"
   sodipodi:docname="main-3v-AVV.svg"
   inkscape:version="1.2.2 (b0a8486541, 2022-12-01)"
   xmlns:inkscape="http://www.inkscape.org/namespaces/inkscape"
   xmlns:sodipodi="http://sodipodi.sourceforge.net/DTD/sodipodi-0.dtd"
   xmlns="http://www.w3.org/2000/svg"
   xmlns:svg="http://www.w3.org/2000/svg">
  <defs
     id="defs3716" />
  <sodipodi:namedview
     id="namedview3714"
     pagecolor="#ffffff"
     bordercolor="#666666"
     borderopacity="1.0"
     inkscape:showpageshadow="2"
     inkscape:pageopacity="0.0"
     inkscape:pagecheckerboard="0"
     inkscape:deskcolor="#d1d1d1"
     showgrid="false"
     inkscape:zoom="71.222217"
     inkscape:cx="6.2901721"
     inkscape:cy="26.768333"
     inkscape:window-width="1920"
     inkscape:window-height="1128"
     inkscape:window-x="0"
     inkscape:window-y="0"
     inkscape:window-maximized="1"
     inkscape:current-layer="svg3712" />
  <path
     fill-rule="nonzero"
     fill="#000000"
     fill-opacity="1"
     stroke-width="0.217304"
     stroke-linecap="butt"
     stroke-linejoin="miter"
     stroke="#ffffff"
     stroke-opacity="1"
     stroke-miterlimit="4"
     d="m 11.890622,4.4524006 c 0,2.4023427 -1.9687494,4.3476551 -4.3867177,4.3476551 -2.4296861,0 -4.3945297,-1.9453124 -4.3945297,-4.3476551 0,-2.3984364 1.9648436,-4.3437487 4.3945297,-4.3437487 2.4179683,0 4.3867177,1.9453123 4.3867177,4.3437487 z m 0,0"
     id="path3700" />
  <path
     fill-rule="nonzero"
     fill="#ff0000"
     fill-opacity="1"
     d="m 9.2499998,4.4563081 c 0,0.960938 -0.785156,1.746094 -1.75,1.746094 -0.964844,0 -1.75,-0.785156 -1.75,-1.746094 0,-0.96875 0.785156,-1.75 1.75,-1.75 0.964844,0 1.75,0.78125 1.75,1.75 z m 0,0"
     id="path3702" />
  <path
     fill-rule="nonzero"
     fill="#000000"
     fill-opacity="1"
     stroke-width="0.217304"
     stroke-linecap="butt"
     stroke-linejoin="miter"
     stroke="#ffffff"
     stroke-opacity="1"
     stroke-miterlimit="4"
     d="m 11.890622,13.362554 c 0,2.402343 -1.9687494,4.347655 -4.3867177,4.347655 -2.4296861,0 -4.3945297,-1.945312 -4.3945297,-4.347655 0,-2.398436 1.9648436,-4.3437488 4.3945297,-4.3437488 2.4179683,0 4.3867177,1.9453128 4.3867177,4.3437488 z m 0,0"
     id="path3704" />
  <path
     fill-rule="nonzero"
     fill="#ffdd00"
     fill-opacity="1"
     d="m 9.2499998,13.362558 c 0,0.964844 -0.785156,1.75 -1.75,1.75 -0.964844,0 -1.75,-0.785156 -1.75,-1.75 0,-0.964843 0.785156,-1.746093 1.75,-1.746093 0.964844,0 1.75,0.78125 1.75,1.746093 z m 0,0"
     id="path3706" />
  <path
     fill-rule="nonzero"
     fill="#000000"
     fill-opacity="1"
     stroke-width="0.217304"
     stroke-linecap="butt"
     stroke-linejoin="miter"
     stroke="#ffffff"
     stroke-opacity="1"
     stroke-miterlimit="4"
     d="m 11.890622,22.260989 c 0,2.402343 -1.9687494,4.351561 -4.3867177,4.351561 -2.4296861,0 -4.3945297,-1.949218 -4.3945297,-4.351561 0,-2.398437 1.9648436,-4.339842 4.3945297,-4.339842 2.4179683,0 4.3867177,1.941405 4.3867177,4.339842 z m 0,0"
     id="path3708" />
  <path
     fill-rule="nonzero"
     fill="#22ff00"
     fill-opacity="1"
     d="m 9.2499998,22.264902 c 0,0.964844 -0.785156,1.75 -1.75,1.75 -0.964844,0 -1.75,-0.785156 -1.75,-1.75 0,-0.964844 0.785156,-1.746094 1.75,-1.746094 0.964844,0 1.75,0.78125 1.75,1.746094 z m 0,0"
     id="path3710" />
  <path
     fill-rule="nonzero"
     fill="#000000"
     fill-opacity="1"
     d="m 15,30.810755 c 0,2.050781 -1.679688,3.710937 -3.746094,3.710937 C 9.1796876,34.521692 7.5,32.861536 7.5,30.810755 c 0,-2.050782 1.6796876,-3.710938 3.753906,-3.710938 2.066406,0 3.746094,1.660156 3.746094,3.710938 z m 0,0"
     id="path2" />
  <path
     fill-rule="nonzero"
     fill="#54bfff"
     fill-opacity="1"
     d="m 13.835938,30.814661 c 0,1.421875 -1.160157,2.582031 -2.585938,2.582031 -1.4257814,0 -2.5859384,-1.160156 -2.5859384,-2.582031 0,-1.433594 1.160157,-2.585938 2.5859384,-2.585938 1.425781,0 2.585938,1.152344 2.585938,2.585938 z m 0,0"
     id="path4" />
  <path
     fill-rule="nonzero"
     fill="#000000"
     fill-opacity="1"
     d="m 7.5,30.810755 c 0,2.050781 -1.679688,3.710937 -3.746094,3.710937 C 1.679688,34.521692 0,32.861536 0,30.810755 0,28.759973 1.679688,27.099817 3.753906,27.099817 5.820312,27.099817 7.5,28.759973 7.5,30.810755 Z m 0,0"
     id="path6" />
  <path
     fill-rule="nonzero"
     fill="#54bfff"
     fill-opacity="1"
     d="m 6.335938,30.814661 c 0,1.421875 -1.160157,2.582031 -2.585938,2.582031 -1.425781,0 -2.585938,-1.160156 -2.585938,-2.582031 0,-1.433594 1.160157,-2.585938 2.585938,-2.585938 1.425781,0 2.585938,1.152344 2.585938,2.585938 z m 0,0"
     id="path8" />
</svg>

<?xml version="1.0" encoding="UTF-8"?>
<svg xmlns="http://www.w3.org/2000/svg" xmlns:xlink="http://www.w3.org/1999/xlink" width="15" height="34.52169" viewBox="0 0 15 34.52169">
<path fill-rule="nonzero" fill="rgb(0%, 0%, 0%)" fill-opacity="1" stroke-width="0.217304" stroke-linecap="butt" stroke-linejoin="miter" stroke="rgb(100%, 100%, 100%)" stroke-opacity="1" stroke-miterlimit="4" d="M 11.890625 4.453125 C 11.890625 6.855469 9.921875 8.800781 7.503906 8.800781 C 5.074219 8.800781 3.109375 6.855469 3.109375 4.453125 C 3.109375 2.054688 5.074219 0.109375 7.503906 0.109375 C 9.921875 0.109375 11.890625 2.054688 11.890625 4.453125 Z M 11.890625 4.453125 "/>
<path fill-rule="nonzero" fill="rgb(100%, 0%, 0%)" fill-opacity="1" d="M 9.25 4.457031 C 9.25 5.417969 8.464844 6.203125 7.5 6.203125 C 6.535156 6.203125 5.75 5.417969 5.75 4.457031 C 5.75 3.488281 6.535156 2.707031 7.5 2.707031 C 8.464844 2.707031 9.25 3.488281 9.25 4.457031 Z M 9.25 4.457031 "/>
<path fill-rule="nonzero" fill="rgb(0%, 0%, 0%)" fill-opacity="1" stroke-width="0.217304" stroke-linecap="butt" stroke-linejoin="miter" stroke="rgb(100%, 100%, 100%)" stroke-opacity="1" stroke-miterlimit="4" d="M 11.890625 13.363281 C 11.890625 15.765625 9.921875 17.710938 7.503906 17.710938 C 5.074219 17.710938 3.109375 15.765625 3.109375 13.363281 C 3.109375 10.964844 5.074219 9.019531 7.503906 9.019531 C 9.921875 9.019531 11.890625 10.964844 11.890625 13.363281 Z M 11.890625 13.363281 "/>
<path fill-rule="nonzero" fill="rgb(100%, 86.666667%, 0%)" fill-opacity="1" d="M 9.25 13.363281 C 9.25 14.328125 8.464844 15.113281 7.5 15.113281 C 6.535156 15.113281 5.75 14.328125 5.75 13.363281 C 5.75 12.398438 6.535156 11.617188 7.5 11.617188 C 8.464844 11.617188 9.25 12.398438 9.25 13.363281 Z M 9.25 13.363281 "/>
<path fill-rule="nonzero" fill="rgb(0%, 0%, 0%)" fill-opacity="1" stroke-width="0.217304" stroke-linecap="butt" stroke-linejoin="miter" stroke="rgb(100%, 100%, 100%)" stroke-opacity="1" stroke-miterlimit="4" d="M 11.890625 22.261719 C 11.890625 24.664062 9.921875 26.613281 7.503906 26.613281 C 5.074219 26.613281 3.109375 24.664062 3.109375 22.261719 C 3.109375 19.863281 5.074219 17.921875 7.503906 17.921875 C 9.921875 17.921875 11.890625 19.863281 11.890625 22.261719 Z M 11.890625 22.261719 "/>
<path fill-rule="nonzero" fill="rgb(13.333333%, 100%, 0%)" fill-opacity="1" d="M 9.25 22.265625 C 9.25 23.230469 8.464844 24.015625 7.5 24.015625 C 6.535156 24.015625 5.75 23.230469 5.75 22.265625 C 5.75 21.300781 6.535156 20.519531 7.5 20.519531 C 8.464844 20.519531 9.25 21.300781 9.25 22.265625 Z M 9.25 22.265625 "/>
<path fill-rule="nonzero" fill="rgb(0%, 0%, 0%)" fill-opacity="1" d="M 15 30.8125 C 15 32.863281 13.320312 34.523438 11.253906 34.523438 C 9.179688 34.523438 7.5 32.863281 7.5 30.8125 C 7.5 28.761719 9.179688 27.101562 11.253906 27.101562 C 13.320312 27.101562 15 28.761719 15 30.8125 Z M 15 30.8125 "/>
<path fill-rule="nonzero" fill="rgb(32.941176%, 74.901961%, 100%)" fill-opacity="1" d="M 13.835938 30.816406 C 13.835938 32.238281 12.675781 33.398438 11.25 33.398438 C 9.824219 33.398438 8.664062 32.238281 8.664062 30.816406 C 8.664062 29.382812 9.824219 28.230469 11.25 28.230469 C 12.675781 28.230469 13.835938 29.382812 13.835938 30.816406 Z M 13.835938 30.816406 "/>
<path fill-rule="nonzero" fill="rgb(0%, 0%, 0%)" fill-opacity="1" d="M 7.5 30.8125 C 7.5 32.863281 5.820312 34.523438 3.753906 34.523438 C 1.679688 34.523438 0 32.863281 0 30.8125 C 0 28.761719 1.679688 27.101562 3.753906 27.101562 C 5.820312 27.101562 7.5 28.761719 7.5 30.8125 Z M 7.5 30.8125 "/>
<path fill-rule="nonzero" fill="rgb(32.941176%, 74.901961%, 100%)" fill-opacity="1" d="M 6.335938 30.816406 C 6.335938 32.238281 5.175781 33.398438 3.75 33.398438 C 2.324219 33.398438 1.164062 32.238281 1.164062 30.816406 C 1.164062 29.382812 2.324219 28.230469 3.75 28.230469 C 5.175781 28.230469 6.335938 29.382812 6.335938 30.816406 Z M 6.335938 30.816406 "/>
</svg>
